X: 1
T: Wallop The Potlid
M: 6/8
L: 1/8
R: jig
K: Gmaj
A|:BAG AGF|DGG FGA|BAB cBc|dgg fdc|
|BAG AGF|DGG FGA|BdB cAF|AGF G2 A:||
|:BAB cBc|dgg fdc|BAB cBc|dBG FGA|
|BAB cBc|dgg fdc|BdB cAF|AGF G2 A:||
